assets/Bikini/Flat/bikini_flat.svg

<svg width="32" height="32" viewBox="0 0 32 32" fill="none" xmlns="http://www.w3.org/2000/svg">
<path d="M26.01 2.5C26.01 2.22 26.24 2 26.51 2C26.79 2 27.01 2.22 27.01 2.5V11.99C27.01 12.74 26.84 13.5 26.47 14.16C25.51 15.86 23.7 17 21.61 17H10.42C8.32999 17 6.51999 15.86 5.52999 14.16C5.15999 13.5 4.98999 12.75 4.98999 11.99V2.5C4.98999 2.22 5.21999 2 5.48999 2C5.76999 2 5.98999 2.23 5.98999 2.5V6.14C11.11 6.14 15.31 9.06 15.89 12.84H16.11C16.7 9.07 20.9 6.14 26.01 6.14V2.5ZM26.8364 16.2864C27.5617 15.5612 28.7482 15.5612 29.4735 16.2864C30.1988 17.0117 30.1988 18.1983 29.4735 18.9235C29.2219 19.1752 28.8951 19.331 28.5874 19.4317C28.3893 19.4965 28.1843 19.5432 27.9865 19.577C29.1974 20.2451 30.02 21.5337 30.02 23.02C30.02 23.2961 29.7961 23.52 29.52 23.52C29.2438 23.52 29.02 23.2961 29.02 23.02C29.02 21.6611 28.0978 20.5236 26.8498 20.1895L17.56 29.44C17.21 29.8 16.72 30 16.22 30H15.8C15.29 30 14.81 29.8 14.45 29.43L5.20448 20.1455C3.92897 20.4607 2.97998 21.6114 2.97998 22.99C2.97998 23.2661 2.75612 23.49 2.47998 23.49C2.20384 23.49 1.97998 23.2661 1.97998 22.99C1.97998 21.5462 2.75616 20.2889 3.91056 19.6058C3.74794 19.5744 3.58207 19.5336 3.42028 19.4802C3.10961 19.3778 2.78177 19.219 2.52637 18.9636C1.80111 18.2383 1.80111 17.0517 2.52637 16.3264C3.25163 15.6012 4.43821 15.6012 5.16348 16.3264C5.66458 16.8276 5.82245 17.6152 5.87901 18.1656C5.90912 18.4586 5.91397 18.7244 5.91146 18.9166C5.91107 18.9461 5.91051 18.9739 5.90983 19H26.08C26.0779 18.9742 26.0759 18.9466 26.074 18.9173C26.062 18.73 26.0557 18.4698 26.0788 18.1782C26.1234 17.6164 26.2851 16.8378 26.8364 16.2864ZM27.0641 18.6629C27.2052 18.6585 27.3699 18.6489 27.5432 18.6296C27.7942 18.6017 28.051 18.555 28.2764 18.4813C28.5067 18.4059 28.6693 18.3136 28.7664 18.2164C29.1011 17.8817 29.1011 17.3283 28.7664 16.9935C28.4317 16.6588 27.8782 16.6588 27.5435 16.9935C27.2476 17.2895 27.1143 17.7709 27.0757 18.2573C27.064 18.4042 27.0617 18.5424 27.0641 18.6629Z" fill="#CA0B4A"/>
<path d="M7.01 10.01C7.56781 10.01 8.02 9.5578 8.02 8.99999C8.02 8.44218 7.56781 7.98999 7.01 7.98999C6.45219 7.98999 6 8.44218 6 8.99999C6 9.5578 6.45219 10.01 7.01 10.01ZM10.01 12.01C10.5678 12.01 11.02 11.5578 11.02 11C11.02 10.4422 10.5678 9.98999 10.01 9.98999C9.45219 9.98999 9 10.4422 9 11C9 11.5578 9.45219 12.01 10.01 12.01ZM8.02 13C8.02 13.5578 7.56781 14.01 7.01 14.01C6.45219 14.01 6 13.5578 6 13C6 12.4422 6.45219 11.99 7.01 11.99C7.56781 11.99 8.02 12.4422 8.02 13ZM11.02 15C11.02 15.5578 10.5678 16.01 10.01 16.01C9.45219 16.01 9 15.5578 9 15C9 14.4422 9.45219 13.99 10.01 13.99C10.5678 13.99 11.02 14.4422 11.02 15ZM14.02 13C14.02 13.5578 13.5678 14.01 13.01 14.01C12.4522 14.01 12 13.5578 12 13C12 12.4422 12.4522 11.99 13.01 11.99C13.5678 11.99 14.02 12.4422 14.02 13ZM17 15C17 15.5578 16.5478 16.01 15.99 16.01C15.4322 16.01 14.98 15.5578 14.98 15C14.98 14.4422 15.4322 13.99 15.99 13.99C16.5478 13.99 17 14.4422 17 15ZM21.98 16.01C22.5378 16.01 22.99 15.5578 22.99 15C22.99 14.4422 22.5378 13.99 21.98 13.99C21.4222 13.99 20.97 14.4422 20.97 15C20.97 15.5578 21.4222 16.01 21.98 16.01ZM25.99 13C25.99 13.5578 25.5378 14.01 24.98 14.01C24.4222 14.01 23.97 13.5578 23.97 13C23.97 12.4422 24.4222 11.99 24.98 11.99C25.5378 11.99 25.99 12.4422 25.99 13ZM21.98 12.01C22.5378 12.01 22.99 11.5578 22.99 11C22.99 10.4422 22.5378 9.98999 21.98 9.98999C21.4222 9.98999 20.97 10.4422 20.97 11C20.97 11.5578 21.4222 12.01 21.98 12.01ZM19.99 13C19.99 13.5578 19.5378 14.01 18.98 14.01C18.4222 14.01 17.97 13.5578 17.97 13C17.97 12.4422 18.4222 11.99 18.98 11.99C19.5378 11.99 19.99 12.4422 19.99 13ZM24.98 10.01C25.5378 10.01 25.99 9.5578 25.99 8.99999C25.99 8.44218 25.5378 7.98999 24.98 7.98999C24.4222 7.98999 23.97 8.44218 23.97 8.99999C23.97 9.5578 24.4222 10.01 24.98 10.01ZM9.01 22.01C9.56781 22.01 10.02 21.5578 10.02 21C10.02 20.4422 9.56781 19.99 9.01 19.99C8.45219 19.99 8 20.4422 8 21C8 21.5578 8.45219 22.01 9.01 22.01ZM13.52 21C13.52 21.5578 13.0678 22.01 12.51 22.01C11.9522 22.01 11.5 21.5578 11.5 21C11.5 20.4422 11.9522 19.99 12.51 19.99C13.0678 19.99 13.52 20.4422 13.52 21ZM15.99 22.01C16.5478 22.01 17 21.5578 17 21C17 20.4422 16.5478 19.99 15.99 19.99C15.4322 19.99 14.98 20.4422 14.98 21C14.98 21.5578 15.4322 22.01 15.99 22.01ZM17.02 24.5C17.02 25.0578 16.5678 25.51 16.01 25.51C15.4522 25.51 15 25.0578 15 24.5C15 23.9422 15.4522 23.49 16.01 23.49C16.5678 23.49 17.02 23.9422 17.02 24.5ZM17.02 28C17.02 28.5578 16.5678 29.01 16.01 29.01C15.4522 29.01 15 28.5578 15 28C15 27.4422 15.4522 26.99 16.01 26.99C16.5678 26.99 17.02 27.4422 17.02 28ZM13.52 24.5C13.52 25.0578 13.0678 25.51 12.51 25.51C11.9522 25.51 11.5 25.0578 11.5 24.5C11.5 23.9422 11.9522 23.49 12.51 23.49C13.0678 23.49 13.52 23.9422 13.52 24.5ZM19.49 22.01C20.0478 22.01 20.5 21.5578 20.5 21C20.5 20.4422 20.0478 19.99 19.49 19.99C18.9322 19.99 18.48 20.4422 18.48 21C18.48 21.5578 18.9322 22.01 19.49 22.01ZM24 21C24 21.5578 23.5478 22.01 22.99 22.01C22.4322 22.01 21.98 21.5578 21.98 21C21.98 20.4422 22.4322 19.99 22.99 19.99C23.5478 19.99 24 20.4422 24 21ZM19.49 25.51C20.0478 25.51 20.5 25.0578 20.5 24.5C20.5 23.9422 20.0478 23.49 19.49 23.49C18.9322 23.49 18.48 23.9422 18.48 24.5C18.48 25.0578 18.9322 25.51 19.49 25.51Z" fill="#FF6DC6"/>
</svg>

<svg xmlns="http://www.w3.org/2000/svg" width="32" height="32" fill="none"><path fill="#CA0B4A" d="M26.01 2.5c0-.28.23-.5.5-.5.28 0 .5.22.5.5v9.49c0 .75-.17 1.51-.54 2.17A5.564 5.564 0 0 1 21.61 17H10.42c-2.09 0-3.9-1.14-4.89-2.84-.37-.66-.54-1.41-.54-2.17V2.5c0-.28.23-.5.5-.5.28 0 .5.23.5.5v3.64c5.12 0 9.32 2.92 9.9 6.7h.22c.59-3.77 4.79-6.7 9.9-6.7V2.5Zm.826 13.786a1.87 1.87 0 0 1 2.638 0 1.87 1.87 0 0 1 0 2.637c-.252.252-.579.408-.887.509a4.243 4.243 0 0 1-.6.145 3.926 3.926 0 0 1 2.033 3.443.5.5 0 0 1-1 0 2.93 2.93 0 0 0-2.17-2.83l-9.29 9.25c-.35.36-.84.56-1.34.56h-.42c-.51 0-.99-.2-1.35-.57l-9.246-9.285A2.93 2.93 0 0 0 2.98 22.99a.5.5 0 0 1-1 0c0-1.444.776-2.701 1.93-3.384a3.972 3.972 0 0 1-.49-.126c-.31-.102-.638-.261-.894-.516a1.87 1.87 0 0 1 0-2.638 1.87 1.87 0 0 1 2.637 0c.502.502.66 1.29.716 1.84a6.606 6.606 0 0 1 .03.834H26.08a5.057 5.057 0 0 1-.001-.822c.044-.562.206-1.34.757-1.892Zm.228 2.377c.141-.005.306-.014.48-.033.25-.028.507-.075.732-.149.23-.075.393-.167.49-.265a.87.87 0 0 0 0-1.223.87.87 0 0 0-1.222 0c-.296.297-.43.778-.468 1.264a4.107 4.107 0 0 0-.012.406Z"/><path fill="#FF6DC6" d="M7.01 10.01a1.01 1.01 0 1 0 0-2.02 1.01 1.01 0 0 0 0 2.02Zm3 2a1.01 1.01 0 1 0 0-2.02 1.01 1.01 0 0 0 0 2.02ZM8.02 13A1.01 1.01 0 1 1 6 13a1.01 1.01 0 0 1 2.02 0Zm3 2A1.01 1.01 0 1 1 9 15a1.01 1.01 0 0 1 2.02 0Zm3-2A1.01 1.01 0 1 1 12 13a1.01 1.01 0 0 1 2.02 0ZM17 15a1.01 1.01 0 1 1-2.02 0A1.01 1.01 0 0 1 17 15Zm4.98 1.01a1.01 1.01 0 1 0 0-2.02 1.01 1.01 0 0 0 0 2.02ZM25.99 13a1.01 1.01 0 1 1-2.02 0 1.01 1.01 0 0 1 2.02 0Zm-4.01-.99a1.01 1.01 0 1 0 0-2.02 1.01 1.01 0 0 0 0 2.02Zm-1.99.99a1.01 1.01 0 1 1-2.02 0 1.01 1.01 0 0 1 2.02 0Zm4.99-2.99a1.01 1.01 0 1 0 0-2.02 1.01 1.01 0 0 0 0 2.02Zm-15.97 12a1.01 1.01 0 1 0 0-2.02 1.01 1.01 0 0 0 0 2.02ZM13.52 21a1.01 1.01 0 1 1-2.02 0 1.01 1.01 0 0 1 2.02 0Zm2.47 1.01a1.01 1.01 0 1 0 0-2.02 1.01 1.01 0 0 0 0 2.02Zm1.03 2.49a1.01 1.01 0 1 1-2.02 0 1.01 1.01 0 0 1 2.02 0Zm0 3.5A1.01 1.01 0 1 1 15 28a1.01 1.01 0 0 1 2.02 0Zm-3.5-3.5a1.01 1.01 0 1 1-2.02 0 1.01 1.01 0 0 1 2.02 0Zm5.97-2.49a1.01 1.01 0 1 0 0-2.02 1.01 1.01 0 0 0 0 2.02ZM24 21a1.01 1.01 0 1 1-2.02 0A1.01 1.01 0 0 1 24 21Zm-4.51 4.51a1.01 1.01 0 1 0 0-2.02 1.01 1.01 0 0 0 0 2.02Z"/></svg>
